custom_files/u161.svg

<svg width="19" height="19" viewBox="-237 473 19 19" xmlns="http://www.w3.org/2000/svg"><path d="M-227.5 473c5.32 0 9.5 4.18 9.5 9.5s-4.18 9.5-9.5 9.5-9.5-4.18-9.5-9.5 4.18-9.5 9.5-9.5z" fill="#aaa5a5"/><path d="M-227.5 473.5c5.04 0 9 3.96 9 9s-3.96 9-9 9-9-3.96-9-9 3.96-9 9-9z" stroke="#797979" fill="none"/></svg>

﻿<?xml version="1.0" encoding="utf-8"?>
<svg version="1.1" xmlns:xlink="http://www.w3.org/1999/xlink" width="19px" height="19px" viewBox="-237 473  19 19" xmlns="http://www.w3.org/2000/svg">
  <path d="M -227.5 473  C -222.18 473  -218 477.18  -218 482.5  C -218 487.82  -222.18 492  -227.5 492  C -232.82 492  -237 487.82  -237 482.5  C -237 477.18  -232.82 473  -227.5 473  Z " fill-rule="nonzero" fill="#aaa5a5" stroke="none" />
  <path d="M -227.5 473.5  C -222.46 473.5  -218.5 477.46  -218.5 482.5  C -218.5 487.54  -222.46 491.5  -227.5 491.5  C -232.54 491.5  -236.5 487.54  -236.5 482.5  C -236.5 477.46  -232.54 473.5  -227.5 473.5  Z " stroke-width="1" stroke="#797979" fill="none" />
</svg>
